icon-themes/sifr_svg/cmd/lc_removehyperlink.svg

<svg viewBox="0 0 24 24" xmlns="http://www.w3.org/2000/svg"><path d="m1 6v2h8v2h2v-2c0-1.108-.9-2-2-2zm14 0c-1.108 0-2 1-2 2v2h2v-2h8v-2zm-8 5v2h10v-2zm2 3v2h-8v2h8c1.1 0 2-.9 2-2v-2zm6.2 0c-.65 0-1.2.55-1.2 1.2v6.6c0 .65.55 1.2 1.2 1.2h6.8c.66 0 1-.55 1-1.2v-6.6c0-.65-.34-1.2-1-1.2zm-.2 1h1l2.5 2.5 2.5-2.5h1v1l-2.5 2.5 2.5 2.4v1h-1l-2.5-2.4-2.5 2.5h-1v-1l2.5-2.5-2.5-2.5z" fill="#555753"/></svg>

<svg xmlns="http://www.w3.org/2000/svg" viewBox="0 0 24 24">
  <path
     style="fill:#555753"
     d="M 1 6 L 1 8 L 9 8 L 9 10 L 11 10 L 11 8 C 11 6.892 10.1 6 9 6 L 1 6 z M 15 6 C 13.892 6 13 7 13 8 L 13 10 L 15 10 L 15 8 L 23 8 L 23 6 L 15 6 z M 7 11 L 7 13 L 17 13 L 17 11 L 7 11 z M 9 14 L 9 16 L 1 16 L 1 18 L 9 18 C 10.1 18 11 17.1 11 16 L 11 14 L 9 14 z M 15.2 14 C 14.55 14 14 14.55 14 15.2 L 14 21.8 C 14 22.45 14.55 23 15.2 23 L 22 23 C 22.66 23 23 22.45 23 21.8 L 23 15.2 C 23 14.55 22.66 14 22 14 L 15.2 14 z M 15 15 L 16 15 L 18.5 17.5 L 21 15 L 22 15 L 22 16 L 19.5 18.5 L 22 20.9 L 22 21.9 L 21 21.9 L 18.5 19.5 L 16 22 L 15 22 L 15 21 L 17.5 18.5 L 15 16 L 15 15 z "
     />
</svg>
